images/check-mark.svg

<svg width="22" height="22" viewBox="0 0 22 22" fill="none" xmlns="http://www.w3.org/2000/svg">
<path fill-rule="evenodd" clip-rule="evenodd" d="M1 10.9998C1 16.5226 5.47715 20.9998 11 20.9998C16.5228 20.9998 21 16.5226 21 10.9998C21 5.47691 16.5228 0.999756 11 0.999756C5.47715 0.999756 1 5.47691 1 10.9998ZM19.1818 10.9997C19.1818 15.5184 15.5187 19.1816 11 19.1816C6.48128 19.1816 2.81815 15.5184 2.81815 10.9997C2.81815 6.48103 6.48128 2.81791 11 2.81791C15.5187 2.81791 19.1818 6.48103 19.1818 10.9997Z" fill="url(#paint0_linear_7_353)"/>
<path fill-rule="evenodd" clip-rule="evenodd" d="M6.98273 9.6548C7.40206 9.29538 8.03336 9.34394 8.39278 9.76327L10.6286 12.3717L14.6826 7.58061C15.0394 7.15901 15.6704 7.10643 16.092 7.46317C16.5136 7.81991 16.5662 8.45089 16.2094 8.8725L11.7761 14.1118C11.1795 14.817 10.0933 14.8204 9.49219 14.1191L6.87427 11.0648C6.51485 10.6455 6.56341 10.0142 6.98273 9.6548Z" fill="url(#paint1_linear_7_353)"/>
<defs>
<linearGradient id="paint0_linear_7_353" x1="4" y1="1.99994" x2="11" y2="20.9998" gradientUnits="userSpaceOnUse">
<stop stop-color="#0CD38B"/>
<stop offset="1" stop-color="#0CB477"/>
</linearGradient>
<linearGradient id="paint1_linear_7_353" x1="9" y1="7.5" x2="10.5089" y2="15.8594" gradientUnits="userSpaceOnUse">
<stop stop-color="#0CD38B"/>
<stop offset="1" stop-color="#0CB477"/>
</linearGradient>
</defs>
</svg>

<svg width="22" height="22" fill="none" xmlns="http://www.w3.org/2000/svg"><path fill-rule="evenodd" clip-rule="evenodd" d="M1 11c0 5.523 4.477 10 10 10s10-4.477 10-10S16.523 1 11 1 1 5.477 1 11zm18.182 0a8.182 8.182 0 1 1-16.364 0 8.182 8.182 0 0 1 16.364 0z" fill="url(#a)"/><path fill-rule="evenodd" clip-rule="evenodd" d="M6.983 9.655a1 1 0 0 1 1.41.108l2.236 2.609 4.054-4.791a1 1 0 0 1 1.526 1.292l-4.433 5.239a1.5 1.5 0 0 1-2.284.007l-2.618-3.054a1 1 0 0 1 .109-1.41z" fill="url(#b)"/><defs><linearGradient id="a" x1="4" y1="2" x2="11" y2="21" gradientUnits="userSpaceOnUse"><stop stop-color="#0CD38B"/><stop offset="1" stop-color="#0CB477"/></linearGradient><linearGradient id="b" x1="9" y1="7.5" x2="10.509" y2="15.859" gradientUnits="userSpaceOnUse"><stop stop-color="#0CD38B"/><stop offset="1" stop-color="#0CB477"/></linearGradient></defs></svg>
